svgs/regular/compress.svg

<svg xmlns="http://www.w3.org/2000/svg" viewBox="0 0 448 512"><!--! Font Awesome Pro 6.6.0 by @fontawesome - https://fontawesome.com License - https://fontawesome.com/license (Commercial License) Copyright 2024 Fonticons, Inc. --><path d="M160 56c0-13.3-10.7-24-24-24s-24 10.7-24 24l0 88-88 0c-13.3 0-24 10.7-24 24s10.7 24 24 24l112 0c13.3 0 24-10.7 24-24l0-112zM24 320c-13.3 0-24 10.7-24 24s10.7 24 24 24l88 0 0 88c0 13.3 10.7 24 24 24s24-10.7 24-24l0-112c0-13.3-10.7-24-24-24L24 320zM336 56c0-13.3-10.7-24-24-24s-24 10.7-24 24l0 112c0 13.3 10.7 24 24 24l112 0c13.3 0 24-10.7 24-24s-10.7-24-24-24l-88 0 0-88zM312 320c-13.3 0-24 10.7-24 24l0 112c0 13.3 10.7 24 24 24s24-10.7 24-24l0-88 88 0c13.3 0 24-10.7 24-24s-10.7-24-24-24l-112 0z"/></svg>

<svg xmlns="http://www.w3.org/2000/svg" viewBox="0 0 448 512"><!--! Font Awesome Pro 6.4.0 by @fontawesome - https://fontawesome.com License - https://fontawesome.com/license (Commercial License) Copyright 2023 Fonticons, Inc. --><path d="M160 56c0-13.3-10.7-24-24-24s-24 10.7-24 24v88H24c-13.3 0-24 10.7-24 24s10.7 24 24 24H136c13.3 0 24-10.7 24-24V56zM24 320c-13.3 0-24 10.7-24 24s10.7 24 24 24h88v88c0 13.3 10.7 24 24 24s24-10.7 24-24V344c0-13.3-10.7-24-24-24H24zM336 56c0-13.3-10.7-24-24-24s-24 10.7-24 24V168c0 13.3 10.7 24 24 24H424c13.3 0 24-10.7 24-24s-10.7-24-24-24H336V56zM312 320c-13.3 0-24 10.7-24 24V456c0 13.3 10.7 24 24 24s24-10.7 24-24V368h88c13.3 0 24-10.7 24-24s-10.7-24-24-24H312z"/></svg>
